Obsidian-SemiLight/actions/16s/document-swap.svg

<svg viewBox="0 0 16 16" xmlns="http://www.w3.org/2000/svg"><path d="m10.171875 1.671875-.7070312.7070312.9492182.9492188.671876.671875h-2.085938-2v1h1 1 2.085938l-.671876.671875-.9492182.9492188.7070312.7070312.949219-.9492188 1.878906-1.8789062-1.878906-1.8789062zm-4.34375 2-.9492188.9492188-1.8789062 1.8789062 1.8789062 1.8789062.9492188.9492188.7070312-.7070312-.9492187-.9492188-.671875-.671875h2.0859375 1 1v-1h-2-2.0859375l.671875-.671875.9492187-.9492188zm6.171875 3.328125v3h-3v3h-5v-4h-1v5h6 1l3-3v-1-3z" fill="#4d4d4d"/></svg>

<svg xmlns="http://www.w3.org/2000/svg" viewBox="0 0 16 16">
  <defs id="defs3051">
    <style type="text/css" id="current-color-scheme">
      .ColorScheme-Text {
        color:#4d4d4d;
      }
      </style>
  </defs>
 <path style="fill:currentColor;fill-opacity:1;stroke:none" 
       d="M 10.171875 1.671875 L 9.4648438 2.3789062 L 10.414062 3.328125 L 11.085938 4 L 9 4 L 7 4 L 7 5 L 8 5 L 9 5 L 11.085938 5 L 10.414062 5.671875 L 9.4648438 6.6210938 L 10.171875 7.328125 L 11.121094 6.3789062 L 13 4.5 L 11.121094 2.6210938 L 10.171875 1.671875 z M 5.828125 3.671875 L 4.8789062 4.6210938 L 3 6.5 L 4.8789062 8.3789062 L 5.828125 9.328125 L 6.5351562 8.6210938 L 5.5859375 7.671875 L 4.9140625 7 L 7 7 L 8 7 L 9 7 L 9 6 L 7 6 L 4.9140625 6 L 5.5859375 5.328125 L 6.5351562 4.3789062 L 5.828125 3.671875 z M 12 7 L 12 10 L 9 10 L 9 13 L 4 13 L 4 9 L 3 9 L 3 14 L 9 14 L 10 14 L 13 11 L 13 10 L 13 7 L 12 7 z "
     class="ColorScheme-Text"
     />
</svg>
